X: 2
T: Bonny Lass    [C]
O: Walsh 1735
%P: Longways for as many as will
R: jig
B: "Caledonian Country Dances" 1740, printed by John Walsh for John Johnson, London
S: http://imslp.org/wiki/Caledonian_Country_Dances_with_a_Thorough_Bass_(Various)
S: John Walsh "The Compleat Country Dancing-Master" v.3 1735
S: John Walsh "Compleat " 1740
Z: 2013 John Chambers <jc:trillian.mit.edu>
N: The 2nd part has initial repeat but no final repeat.
M: 6/8
L: 1/8
K: C
% - - - - - - - - - - - - - - - - - - - - - - - - -
|:\
"C"c2g gfe | "G7"d2e f3 | "C"edc cde | "F(D7)"dec "G7"dBG |\
"C"c2g gfe | "G7"d2e f>gf "I"| "C"edc "Dm"f2e | "G7"dBG "C"c3 :|
|:\
"G7"B2c dBG | B2c d2e/f/ | "C"gec gec | gec gec |\
"G7"B2c dBG | B2c d2e/f/ | "C"gec "Dm"f2e | "G7"dBG "C"c3 :|
% - - - - - - - - - - - - - - - - - - - - - - - - -
% %begintext align
% % The two 1st Men dance round Partners. 1st Man lead his Partner thro' the 2d Cu.
% % the two 1st We. figure round the Men. then 1st Wo. lead her Partner thro' .|
% % the 1st Man sett to the 2d Wo. and turn single. the 1st Wo. sett to the 2d Man. 1st Cu cast off .|
% % Man takes his Partner and draws her quite round 3d Cu. and round 2d :|
% %endtext

%%sep 1 1 500

